gdscript/src/main/resources/icons/godot_editor/LockViewport.svg

<svg height="16" viewBox="0 0 16 16" width="16" xmlns="http://www.w3.org/2000/svg"><path d="m8 0a6 6 0 0 0 -6 6v1h-1v9h14v-9h-1v-1a6 6 0 0 0 -6-6zm0 4c1.1046 0 2 .89543 2 2v1h-4v-1c0-1.1046.89543-2 2-2z" fill-opacity=".39216" stroke-linecap="round" stroke-linejoin="round" stroke-width="4"/><path d="m8 1a5 5 0 0 0 -5 5v2h-1v7h12v-7h-1v-2a5 5 0 0 0 -5-5zm0 2a3 3 0 0 1 3 3v2h-6v-2a3 3 0 0 1 3-3zm-1 7h2v3h-2z" fill="#e0e0e0"/></svg>

<svg height="16" viewBox="0 0 16 16" width="16" xmlns="http://www.w3.org/2000/svg"><path d="M2 6v1H1v9h14V7h-1V6A6 6 0 0 0 2 6zm8 0v1H6V6a1 1 0 0 1 4 0z" fill-opacity=".392"/><path d="M3 6v2H2v7h12V8h-1V6A5 5 0 0 0 3 6zm8 0v2H5V6a3 3 0 0 1 6 0zm-4 4h2v3H7z" fill="#e0e0e0"/></svg>
